docs/assets/apple.svg

<?xml version="1.0" encoding="UTF-8" standalone="no"?><!DOCTYPE svg PUBLIC "-//W3C//DTD SVG 1.1//EN" "http://www.w3.org/Graphics/SVG/1.1/DTD/svg11.dtd"><svg width="100%" height="100%" viewBox="0 0 129638 129638" version="1.1" xmlns="http://www.w3.org/2000/svg" xmlns:xlink="http://www.w3.org/1999/xlink" xml:space="preserve" xmlns:serif="http://www.serif.com/" style="fill-rule:evenodd;clip-rule:evenodd;stroke-linejoin:round;stroke-miterlimit:2;"><g><g><text x="2209.7px" y="121765px" style="font-family:'Arial-BoldMT', 'Arial', sans-serif;font-weight:700;font-size:18333.3px;">macOS 10.13+</text></g></g><path d="M102016,70100.8c-1388.61,4450.62 -3578.32,8901.25 -6569.17,13351.9c-4593.04,6978.58 -9168.29,10467.9 -13725.8,10467.9c-1744.65,0 -4237,-569.671 -7477.08,-1709.05c-3062.03,-1139.36 -5750.21,-1709.05 -8064.54,-1709.05c-2171.91,0 -4699.88,587.5 -7583.88,1762.47c-2884.01,1210.57 -5233.96,1815.85 -7049.79,1815.85c-5411.96,0 -10770.5,-4610.83 -16075.7,-13832.6c-5233.96,-9292.92 -7850.92,-18247.6 -7850.92,-26864.1c0,-8117.96 2011.69,-14776.1 6035.04,-19974.5c4023.37,-5127.12 9079.29,-7690.71 15167.8,-7690.71c2563.56,0 5714.62,534.063 9453.17,1602.23c3702.93,1068.16 6159.71,1602.22 7370.25,1602.22c1602.22,-0 4147.99,-605.279 7637.29,-1815.85c3631.72,-1210.58 6711.58,-1815.87 9239.5,-1815.87c4237,0 8028.96,1157.17 11375.8,3471.49c1851.48,1281.79 3702.93,3062.05 5554.38,5340.75c-2812.8,2385.54 -4842.29,4486.25 -6088.46,6302.08c-2314.34,3346.88 -3471.49,7032 -3471.49,11055.4c-0,4415 1228.37,8385 3685.12,11909.9c2456.75,3524.91 5269.54,5768.04 8438.42,6729.38l0,0.088l-0.004,0.091Zm-20081.2,-62647.1c0,2171.91 -516.271,4593.04 -1548.82,7263.42c-1068.14,2670.38 -2723.78,5127.12 -4966.92,7370.25c-1922.67,1922.67 -3845.35,3204.45 -5768.04,3845.35c-1317.38,391.645 -3168.84,694.287 -5554.42,907.933c106.825,-5305.17 1495.42,-9880.42 4165.8,-13725.8c2634.78,-3809.74 7085.42,-6444.5 13351.9,-7904.33c35.591,106.82 80.104,302.637 133.508,587.483c53.421,284.842 97.917,480.675 133.525,587.483c0,142.429 8.904,320.45 26.7,534.079c17.796,213.63 26.704,391.65 26.704,534.08l0.042,0.008Z" style="fill-rule:nonzero;"/></svg>

<?xml version="1.0" encoding="UTF-8" standalone="no"?>
<!DOCTYPE svg PUBLIC "-//W3C//DTD SVG 1.1//EN" "http://www.w3.org/Graphics/SVG/1.1/DTD/svg11.dtd">
<svg width="100%" height="100%" viewBox="0 0 1890 1890" version="1.1" xmlns="http://www.w3.org/2000/svg" xmlns:xlink="http://www.w3.org/1999/xlink" xml:space="preserve" xmlns:serif="http://www.serif.com/" style="fill-rule:evenodd;clip-rule:evenodd;stroke-linejoin:round;stroke-miterlimit:2;">
    <g transform="matrix(1,0,0,1,3.63101,70.8561)">
        <g transform="matrix(0.0190508,0,0,0.0190508,494.613,1613.05)">
            <text x="0px" y="0px" style="font-family:'Arial-BoldMT', 'Arial', sans-serif;font-weight:700;font-size:13122.8px;">macOS</text>
        </g>
        <g transform="matrix(0.0142881,0,0,0.0142881,15.1293,-43.5414)">
            <path d="M102016,70100.8C100627,74551.4 98437.7,79002.1 95446.8,83452.7C90853.8,90431.3 86278.5,93920.6 81721,93920.6C79976.4,93920.6 77484,93350.9 74243.9,92211.6C71181.9,91072.2 68493.7,90502.5 66179.4,90502.5C64007.5,90502.5 61479.5,91090 58595.5,92265C55711.5,93475.5 53361.6,94080.8 51545.7,94080.8C46133.8,94080.8 40775.2,89470 35470,80248.2C30236.1,70955.3 27619.1,62000.6 27619.1,53384.1C27619.1,45266.2 29630.8,38608 33654.2,33409.6C37677.5,28282.5 42733.5,25718.9 48822,25718.9C51385.5,25718.9 54536.6,26253 58275.1,27321.1C61978.1,28389.3 64434.8,28923.4 65645.4,28923.4C67247.6,28923.4 69793.4,28318.1 73282.7,27107.5C76914.4,25896.9 79994.2,25291.6 82522.2,25291.6C86759.2,25291.6 90551.1,26448.8 93898,28763.1C95749.4,30044.9 97600.9,31825.2 99452.4,34103.9C96639.6,36489.4 94610.1,38590.1 93363.9,40406C91049.6,43752.8 89892.4,47438 89892.4,51461.4C89892.4,55876.4 91120.8,59846.4 93577.5,63371.3C96034.3,66896.2 98847.1,69139.3 102016,70100.6L102016,70100.7L102016,70100.8L102016,70100.8ZM81934.8,7453.7C81934.8,9625.61 81418.5,12046.7 80386,14717.1C79317.8,17387.5 77662.2,19844.2 75419.1,22087.4C73496.4,24010 71573.7,25291.8 69651,25932.7C68333.6,26324.4 66482.2,26627 64096.6,26840.7C64203.4,21535.5 65592,16960.2 68262.4,13114.9C70897.2,9305.11 75347.8,6670.35 81614.3,5210.52C81649.9,5317.34 81694.4,5513.16 81747.8,5798.01C81801.2,6082.85 81845.7,6278.68 81881.3,6385.49C81881.3,6527.92 81890.2,6705.94 81908,6919.57C81925.8,7133.2 81934.7,7311.22 81934.7,7453.65L81934.8,7453.66L81934.8,7453.7Z" style="fill-rule:nonzero;"/>
        </g>
    </g>
</svg>
